deployments/warp_routes/wfragBTC/logo.svg

<svg xmlns="http://www.w3.org/2000/svg" width="1816" height="1816" fill="none" viewBox="0 0 1816 1816"><path fill="url(#a)" d="M907.95 1815.9c501.45 0 907.95-406.5 907.95-907.95C1815.9 406.503 1409.4 0 907.95 0 406.503 0 0 406.503 0 907.95c0 501.45 406.503 907.95 907.95 907.95"/><path stroke="#000" stroke-linecap="round" stroke-miterlimit="10" stroke-width="20" d="M848.32 1696.61C438.77 1666.83 115.75 1325.15 115.75 908s323.02-758.83 732.57-788.61" opacity=".5"/><path stroke="#000" stroke-linecap="round" stroke-miterlimit="10" stroke-width="20" d="M848.32 75.22C413.86 105.09 70.69 466.96 70.69 909s343.17 803.91 777.63 833.78m115.22-45.06c409.55-29.78 732.57-371.46 732.57-788.61S1373.09 150.28 963.54 120.5" opacity=".5"/><path stroke="#000" stroke-linecap="round" stroke-miterlimit="10" stroke-width="20" d="M963.54 76.33c434.46 29.87 777.63 391.74 777.63 833.78S1398 1714.02 963.54 1743.89" opacity=".5"/><path fill="#000" d="M1166.38 827.685c12.9-88.259-52.75-135.705-142.54-167.356l29.12-119.555-71.11-18.14-28.357 116.41c-18.697-4.778-37.897-9.273-56.978-13.732l28.561-117.184L854.034 490l-29.137 119.517c-15.469-3.61-30.661-7.172-45.41-10.918l.084-.381-98.067-25.068-18.912 77.734s52.753 12.38 51.649 13.142c28.801 7.357 33.997 26.861 33.133 42.324l-79.802 327.54c-3.516 8.95-12.457 22.39-32.581 17.29.708 1.06-51.686-13.2-51.686-13.2L548 1121.29l92.535 23.61c17.22 4.42 34.081 9.04 50.702 13.38l-29.425 120.93 71.03 18.14 29.137-119.64c19.404 5.4 38.233 10.37 56.666 15.06l-29.041 119.09 71.114 18.14 29.425-120.71c121.247 23.48 212.427 14.02 250.807-98.23 30.93-90.37-1.54-142.511-65.33-176.496 46.47-10.968 81.46-42.238 90.8-106.854h-.03zm-162.47 233.165c-21.976 90.37-170.649 41.53-218.854 29.27l39.049-160.211c48.193 12.319 202.775 36.687 179.805 130.941m21.99-234.479c-20.05 82.204-143.785 40.445-183.927 30.202l35.401-145.298c40.142 10.243 169.406 29.354 148.546 115.096z"/><g filter="url(#b)"><path fill="url(#c)" d="M1437.35 386.647c-73.13-73.136-271.35 0-412.35 105.853l64.97 14.5c92.03-32.5 165.79-51.57 212.71-4.643 89.01 89.014-21.83 344.189-247.59 569.943-225.765 225.75-480.929 336.6-569.944 247.59-63.457-63.45 37.201-282.37 146.094-443.833-8.807-9.569-14.741-17.347-18.74-23.557-181.012 232.26-322.697 520.02-241.86 600.85 102.705 102.71 424.763-52.81 719.33-347.37 294.57-294.571 450.09-616.628 347.38-719.333"/></g><defs><linearGradient id="a" x1="265.94" x2="1549.96" y1="1549.96" y2="265.94" gradientUnits="userSpaceOnUse"><stop stop-color="#FD7526"/><stop offset=".35" stop-color="#FAA52A"/><stop offset=".52" stop-color="#FFFF5C"/><stop offset="1" stop-color="#FAA52A"/></linearGradient><linearGradient id="c" x1="1436.52" x2="364.753" y1="371.241" y2="1438.53" gradientUnits="userSpaceOnUse"><stop stop-opacity="0"/><stop offset=".15"/><stop offset=".75"/><stop offset="1" stop-opacity="0"/></linearGradient><filter id="b" width="1181.63" height="1187.88" x="317.372" y="327.123" color-interpolation-filters="sRGB" filterUnits="userSpaceOnUse"><feFlood flood-opacity="0" result="BackgroundImageFix"/><feColorMatrix in="SourceAlpha" result="hardAlpha" values="0 0 0 0 0 0 0 0 0 0 0 0 0 0 0 0 0 0 127 0"/><feOffset/><feGaussianBlur stdDeviation="15"/><feColorMatrix values="0 0 0 0 0 0 0 0 0 0 0 0 0 0 0 0 0 0 0.7 0"/><feBlend in2="BackgroundImageFix" result="effect1_dropShadow_17678_10193"/><feBlend in="SourceGraphic" in2="effect1_dropShadow_17678_10193" result="shape"/></filter></defs></svg>

<svg width="1816" height="1816" viewBox="0 0 1816 1816" fill="none" xmlns="http://www.w3.org/2000/svg">
<path d="M907.95 1815.9C1409.4 1815.9 1815.9 1409.4 1815.9 907.95C1815.9 406.503 1409.4 0 907.95 0C406.503 0 0 406.503 0 907.95C0 1409.4 406.503 1815.9 907.95 1815.9Z" fill="url(#paint0_linear_17678_10193)"/>
<path opacity="0.5" d="M848.32 1696.61C438.77 1666.83 115.75 1325.15 115.75 908C115.75 490.85 438.77 149.17 848.32 119.39" stroke="black" stroke-width="20" stroke-miterlimit="10" stroke-linecap="round"/>
<path opacity="0.5" d="M848.32 75.22C413.86 105.09 70.69 466.96 70.69 909C70.69 1351.04 413.86 1712.91 848.32 1742.78" stroke="black" stroke-width="20" stroke-miterlimit="10" stroke-linecap="round"/>
<path opacity="0.5" d="M963.54 1697.72C1373.09 1667.94 1696.11 1326.26 1696.11 909.11C1696.11 491.96 1373.09 150.28 963.54 120.5" stroke="black" stroke-width="20" stroke-miterlimit="10" stroke-linecap="round"/>
<path opacity="0.5" d="M963.54 76.33C1398 106.2 1741.17 468.07 1741.17 910.11C1741.17 1352.15 1398 1714.02 963.54 1743.89" stroke="black" stroke-width="20" stroke-miterlimit="10" stroke-linecap="round"/>
<path d="M1166.38 827.685C1179.28 739.426 1113.63 691.98 1023.84 660.329L1052.96 540.774L981.85 522.634L953.493 639.044C934.796 634.266 915.596 629.771 896.515 625.312L925.076 508.128L854.034 490L824.897 609.517C809.428 605.907 794.236 602.345 779.487 598.599L779.571 598.218L681.504 573.15L662.592 650.884C662.592 650.884 715.345 663.264 714.241 664.026C743.042 671.383 748.238 690.887 747.374 706.35L667.572 1033.89C664.056 1042.84 655.115 1056.28 634.991 1051.18C635.699 1052.24 583.305 1037.98 583.305 1037.98L548 1121.29L640.535 1144.9C657.755 1149.32 674.616 1153.94 691.237 1158.28L661.812 1279.21L732.842 1297.35L761.979 1177.71C781.383 1183.11 800.212 1188.08 818.645 1192.77L789.604 1311.86L860.718 1330L890.143 1209.29C1011.39 1232.77 1102.57 1223.31 1140.95 1111.06C1171.88 1020.69 1139.41 968.549 1075.62 934.564C1122.09 923.596 1157.08 892.326 1166.42 827.71H1166.39L1166.38 827.685ZM1003.91 1060.85C981.934 1151.22 833.261 1102.38 785.056 1090.12L824.105 929.909C872.298 942.228 1026.88 966.596 1003.91 1060.85ZM1025.9 826.371C1005.85 908.575 882.115 866.816 841.973 856.573L877.374 711.275C917.516 721.518 1046.78 740.629 1025.92 826.371H1025.9Z" fill="black"/>
<g filter="url(#filter0_d_17678_10193)">
<path d="M1437.35 386.647C1364.22 313.511 1166 386.647 1025 492.5L1089.97 507C1182 474.5 1255.76 455.43 1302.68 502.357C1391.69 591.371 1280.85 846.546 1055.09 1072.3C829.325 1298.05 574.161 1408.9 485.146 1319.89C421.689 1256.44 522.347 1037.52 631.24 876.057C622.433 866.488 616.499 858.71 612.5 852.5C431.488 1084.76 289.803 1372.52 370.64 1453.35C473.345 1556.06 795.403 1400.54 1089.97 1105.98C1384.54 811.409 1540.06 489.352 1437.35 386.647Z" fill="url(#paint1_linear_17678_10193)"/>
</g>
<defs>
<filter id="filter0_d_17678_10193" x="317.372" y="327.123" width="1181.63" height="1187.88" filterUnits="userSpaceOnUse" color-interpolation-filters="sRGB">
<feFlood flood-opacity="0" result="BackgroundImageFix"/>
<feColorMatrix in="SourceAlpha" type="matrix" values="0 0 0 0 0 0 0 0 0 0 0 0 0 0 0 0 0 0 127 0" result="hardAlpha"/>
<feOffset/>
<feGaussianBlur stdDeviation="15"/>
<feColorMatrix type="matrix" values="0 0 0 0 0 0 0 0 0 0 0 0 0 0 0 0 0 0 0.7 0"/>
<feBlend mode="normal" in2="BackgroundImageFix" result="effect1_dropShadow_17678_10193"/>
<feBlend mode="normal" in="SourceGraphic" in2="effect1_dropShadow_17678_10193" result="shape"/>
</filter>
<linearGradient id="paint0_linear_17678_10193" x1="265.94" y1="1549.96" x2="1549.96" y2="265.94" gradientUnits="userSpaceOnUse">
<stop stop-color="#FD7526"/>
<stop offset="0.35" stop-color="#FAA52A"/>
<stop offset="0.52" stop-color="#FFFF5C"/>
<stop offset="1" stop-color="#FAA52A"/>
</linearGradient>
<linearGradient id="paint1_linear_17678_10193" x1="1436.52" y1="371.241" x2="364.753" y2="1438.53" gradientUnits="userSpaceOnUse">
<stop stop-opacity="0"/>
<stop offset="0.15"/>
<stop offset="0.75"/>
<stop offset="1" stop-opacity="0"/>
</linearGradient>
</defs>
</svg>
